X: 35983
T: Sarie Marais
R: polka
M: 2/4
K: Dmajor
A2|dd de|fe dc|B2 B2|e3 d|c2 cB|A2 g2|f4-|f2 A2|
dd de|fe dc|B2 B2|e3 d|c2 cB|A2 e2|d4-|d2 f2|
gg gg|g2 ag|f2 fe|d4|d2 de|f2 a2|e4-|e2 A2|
dd de|fe dc|B2 B2|e3 d|c2 cB|A2 e2|d4-|d2||

